X:1
T:Gramercy Park, 77.77 D
T:Gramercy Park, 77.77 D
T:Daniel T. McFarlan, 1873
T:Public Domain Courtesy of the Cyber Hymnal™
C:Daniel T. McFarlan, 1873
Z:Public Domain
Z:Courtesy of the Cyber Hymnal™
%%score ( 1 2 ) ( 3 4 )
L:1/8
Q:1/4=83
M:6/8
K:C
V:1 treble 
V:2 treble 
V:3 bass 
V:4 bass 
V:1
 ([Ge]>[Fd])[Ec] [FA]2 [Fc] | (d>c)[FA] [EG]3 | ([EG]>[FA])[EG] [CE]2 [EG] | %3
 ([FA]>[EG])[CE] [B,D]3 | ([Ge]>[Fd])[Ec] [FA]2 [Fc] | (d>c)[FA] [EG]3 | [FA]2 [FA] [EG]2 [Gc] | %7
 [Ge]2 [Fd] [Ec]3 | [DB]>[Ec][Fd] [Ec]2 [EG] | (c>d)[Ge] [Gd]3 | [Ec]2 [Ec] [DB]2 [DG] | %11
 [GB]2 [^FA] G3 | ([Ge]>[Fd])[Ec] [FA]2 [Fc] | (d>c)[FA] [EG]3 | [FA]2 [FA] [EG]2 [Gc] | %15
 [Ge]2 [Fd] [Ec]3 |] %16
V:2
 x6 | F2 x4 | x6 | x6 | x6 | F2 x4 | x6 | x6 | x6 | G2 x4 | x6 | x3 G3 | x6 | F2 x4 | x6 | x6 |] %16
V:3
 [C,C]2 [C,C] [F,C]2 [F,A,] | [F,A,]2 [F,C] [C,C]3 | [C,C]2 [C,C] [C,G,]2 [C,C] | %3
 [C,C]2 [E,G,] G,3 | [C,C]2 [C,C] [F,C]2 [F,A,] | [F,A,]2 [F,C] [C,C]3 | %6
 [F,C]2 [F,C] [C,C]2 [E,C] | [G,C]2 [G,B,] [C,C]3 | G,2 G, [C,G,]2 [C,C] | %9
 ([E,C]>[D,B,])[C,C] [G,B,]3 | [C,G,]2 [C,G,] [D,G,]2 [D,B,] | [D,D]2 [D,C] [G,B,]3 | %12
 [C,C]2 [C,C] [F,C]2 [F,A,] | [F,A,]2 [F,C] [C,C]3 | [F,C]2 [F,C] [C,C]2 [E,C] | %15
 [G,C]2 [G,B,] [C,C]3 |] %16
V:4
 x6 | x6 | x6 | x3 G,3 | x6 | x6 | x6 | x6 | G,2 G, x3 | x6 | x6 | x6 | x6 | x6 | x6 | x6 |] %16

